src/lib/assets/tools/studio3t.svg

<svg width="510" height="218" viewBox="0 0 510 218" fill="none" xmlns="http://www.w3.org/2000/svg">
  <path
    d="M320.42 144.755C328.799 155.015 344.36 163.052 365.393 163.052C392.753 163.052 410.366 149.201 410.366 129.536C410.366 112.436 395.318 103.373 383.69 102.176C396.344 99.953 408.656 90.548 408.656 76.184C408.656 57.203 392.24 45.233 365.564 45.233C345.557 45.233 331.193 52.928 321.959 63.359L333.929 78.407C341.966 70.712 351.884 66.437 362.999 66.437C374.969 66.437 384.203 71.054 384.203 80.117C384.203 88.667 375.824 92.771 363.17 92.771C358.724 92.771 351.029 92.771 348.977 92.6V113.804C350.687 113.633 358.382 113.633 363.17 113.633C379.073 113.633 386.084 117.908 386.084 127.142C386.084 135.863 378.389 141.848 364.538 141.848C353.423 141.848 340.94 137.06 333.074 128.852L320.42 144.755Z"
    fill="#17AF66" />
  <path d="M447.514 161H471.967V68.318H505.141V46.943H414.169V68.318H447.514V161Z" fill="#17AF66" />
  <path fill-rule="evenodd" clip-rule="evenodd"
    d="M285.802 91.1661C283.624 88.1359 281.508 85.0351 279.867 81.646C278.407 78.6318 277.325 75.4136 276.243 72.1948C274.922 68.2656 273.601 64.3356 271.592 60.7748C245.162 13.9353 198.107 -0.575021 152.656 0.0172949C110.96 0.559773 42.2783 24.4304 11.4153 96.8706C9.43694 101.62 7.70106 106.483 6.23885 111.436C3.98101 119.074 2.31947 126.943 1.2309 134.905L1.18573 134.898C-3.8183 185.286 7.60308 211.507 24.4101 216.828C35.6589 220.389 45.5582 215.585 57.1734 205.821C69.942 195.087 74.9444 186.982 73.5118 175.816C72.0312 164.272 59.5703 155.858 48.296 152.858C31.9854 148.12 38.5573 137.662 38.5573 137.662C38.5573 137.662 56.1268 150.284 84.4638 147.107C110.315 144.209 115.232 138.811 115.232 138.811C115.192 112.136 129.508 93.5305 148.218 91.7376C135.217 97.8664 127.708 119.038 127.733 136.216L127.801 181.684L134.269 181.693C153.23 181.721 169.393 162.654 169.361 141.096L169.348 132.168C169.348 132.168 183.536 124.475 203.675 122.218C213.207 121.149 220.666 122.146 227.106 124.072C223.36 119.51 220.939 114.115 220.733 107.756C220.644 104.982 225.231 103.765 226.238 107.764C229.827 123.884 239.048 130.784 262.107 137.698C266.008 138.332 270.293 138.493 275.179 137.945C285.175 136.571 295.153 131.037 296.75 119.285C298.246 108.278 292.767 100.747 287.162 93.0422C286.708 92.4186 286.254 91.7939 285.802 91.1661ZM177.698 136.341C180.286 161.865 165.782 172.643 165.782 172.643C186.021 171.429 208.91 152.948 207.753 129.209C207.753 129.209 198.779 127.905 177.698 136.341ZM252.737 91.8107C256.33 91.8159 259.238 88.6877 259.232 84.8237C259.226 80.9596 256.309 77.8229 252.716 77.8177C249.123 77.8125 246.215 80.9407 246.221 84.8047C246.227 88.6688 249.144 91.8055 252.737 91.8107Z"
    fill="#17AF66" />
</svg>

<svg xmlns="http://www.w3.org/2000/svg" width="510" height="218" fill="none"><path fill="#17AF66" d="M320.42 144.755c8.379 10.26 23.94 18.297 44.973 18.297 27.36 0 44.973-13.851 44.973-33.516 0-17.1-15.048-26.163-26.676-27.36 12.654-2.223 24.966-11.628 24.966-25.992 0-18.981-16.416-30.951-43.092-30.951-20.007 0-34.371 7.695-43.605 18.126l11.97 15.048c8.037-7.695 17.955-11.97 29.07-11.97 11.97 0 21.204 4.617 21.204 13.68 0 8.55-8.379 12.654-21.033 12.654-4.446 0-12.141 0-14.193-.171v21.204c1.71-.171 9.405-.171 14.193-.171 15.903 0 22.914 4.275 22.914 13.509 0 8.721-7.695 14.706-21.546 14.706-11.115 0-23.598-4.788-31.464-12.996l-12.654 15.903ZM447.514 161h24.453V68.318h33.174V46.943h-90.972v21.375h33.345V161Z"/><path fill="#17AF66" fill-rule="evenodd" d="M285.802 91.166c-2.178-3.03-4.294-6.13-5.935-9.52-1.46-3.014-2.542-6.232-3.624-9.451-1.321-3.93-2.642-7.86-4.651-11.42-26.43-46.84-73.485-61.35-118.936-60.758C110.96.56 42.278 24.43 11.416 96.871a143.737 143.737 0 0 0-5.177 14.565c-2.258 7.638-3.92 15.507-5.008 23.469l-.045-.007c-5.004 50.388 6.417 76.609 23.224 81.93 11.249 3.561 21.148-1.243 32.763-11.007 12.769-10.734 17.771-18.839 16.339-30.005-1.48-11.544-13.942-19.958-25.216-22.958-16.31-4.738-9.739-15.196-9.739-15.196s17.57 12.622 45.907 9.445c25.851-2.898 30.768-8.296 30.768-8.296-.04-26.675 14.276-45.28 32.986-47.073-13.001 6.128-20.51 27.3-20.485 44.478l.068 45.468 6.468.009c18.961.028 35.124-19.039 35.092-40.597l-.013-8.928s14.188-7.693 34.327-9.95c9.532-1.069 16.991-.072 23.431 1.854-3.746-4.562-6.167-9.957-6.373-16.316-.089-2.774 4.498-3.991 5.505.008 3.589 16.12 12.81 23.02 35.869 29.934 3.901.634 8.186.795 13.072.247 9.996-1.374 19.974-6.908 21.571-18.66 1.496-11.007-3.983-18.538-9.588-26.243-.454-.623-.908-1.248-1.36-1.876Zm-108.104 45.175c2.588 25.524-11.916 36.302-11.916 36.302 20.239-1.214 43.128-19.695 41.971-43.434 0 0-8.974-1.304-30.055 7.132Zm75.039-44.53c3.593.005 6.501-3.123 6.495-6.987-.006-3.864-2.923-7.001-6.516-7.006-3.593-.005-6.501 3.123-6.495 6.987.006 3.864 2.923 7 6.516 7.006Z" clip-rule="evenodd"/></svg>
